nord_icons/symbolic/status/changes-allow-symbolic.svg

<?xml version="1.0" encoding="UTF-8"?>
<svg height="16px" viewBox="0 0 16 16" width="16px" xmlns="http://www.w3.org/2000/svg">
    <path d="m 8 0 c -2.199219 0 -4 1.800781 -4 4 v 1 c 0 0.550781 0.449219 1 1 1 s 1 -0.449219 1 -1 v -1 c 0 -1.125 0.875 -2 2 -2 s 2 0.875 2 2 v 4 h -6 c -1.109375 0 -2 0.890625 -2 2 v 5 c 0 0.554688 0.445312 1 1 1 h 10 c 0.554688 0 1 -0.445312 1 -1 v -5 c 0 -1.109375 -0.890625 -2 -2 -2 v -4 c 0 -2.199219 -1.800781 -4 -4 -4 z m 0 0" fill="#2e3436"/>
</svg>

<svg xmlns="http://www.w3.org/2000/svg" width="16" height="16" version="1.1">
 <path style="fill:#9aa2af" d="M 8,0 C 5.784,0 4,1.784 4,4 V 5 H 6 V 4 C 6,2.892 6.892,2 8,2 9.108,2 10,2.892 10,4 V 8 H 3 C 2.446,8 2,8.446 2,9 V 15 C 2,15.554 2.446,16 3,16 H 13 C 13.554,16 14,15.554 14,15 V 9 C 14,8.446 13.554,8 13,8 H 12 V 4 C 12,1.784 10.216,0 8,0 Z"/>
</svg>
